files/resources/svgs/general/s-archive-box.svg

<svg width="24" height="24" viewBox="0 0 24 24" fill="none" xmlns="http://www.w3.org/2000/svg">
<path d="M3.375 3C2.33947 3 1.5 3.83947 1.5 4.875V5.625C1.5 6.66053 2.33947 7.5 3.375 7.5H20.625C21.6605 7.5 22.5 6.66053 22.5 5.625V4.875C22.5 3.83947 21.6605 3 20.625 3H3.375Z" fill="#0F172A"/>
<path fill-rule="evenodd" clip-rule="evenodd" d="M3.08679 9L3.62657 18.1762C3.71984 19.7619 5.03296 21 6.62139 21H17.3783C18.9667 21 20.2799 19.7619 20.3731 18.1762L20.9129 9H3.08679ZM9.24976 12.75C9.24976 12.3358 9.58554 12 9.99976 12H13.9998C14.414 12 14.7498 12.3358 14.7498 12.75C14.7498 13.1642 14.414 13.5 13.9998 13.5H9.99976C9.58554 13.5 9.24976 13.1642 9.24976 12.75Z" fill="#0F172A"/>
</svg>

<svg xmlns="http://www.w3.org/2000/svg" viewBox="0 0 24 24" fill="currentColor" aria-hidden="true">
  <path d="M3.375 3C2.339 3 1.5 3.84 1.5 4.875v.75c0 1.036.84 1.875 1.875 1.875h17.25c1.035 0 1.875-.84 1.875-1.875v-.75C22.5 3.839 21.66 3 20.625 3H3.375z"/>
  <path fill-rule="evenodd" d="M3.087 9l.54 9.176A3 3 0 006.62 21h10.757a3 3 0 002.995-2.824L20.913 9H3.087zm6.163 3.75A.75.75 0 0110 12h4a.75.75 0 010 1.5h-4a.75.75 0 01-.75-.75z" clip-rule="evenodd"/>
</svg>
